X: 58
T:Salutation
T: c.1710
M:3/2
L:1/8
Z:Alf Warnock - alf0@rogers.com
B:Barnes p114
K:A
e2fga2 |: "A"e4c3B ABc2 | "E"B4E4E4 | "D"FGA2F2ED CDE2 | "E"B,8B3c |
"D"d4f4FGA2 | "E"G6B2Bcd2 | "A"e2c4c2"E"B2A2 | "A"A6e2"D"fga2 :|
|: "D"d3cd2e2"A"fefg | "E"B6^d2"B"e2f2 | "E"g3a"A"f2ge"B"f2^d2 | "E"e6B2Bcd2 |
"A"c3Bc2A2"D"FGA2 | "E"G6e2efg2 | "D"f3e faec"E"B2A2 | "A"A6e2fga2 :|
